X: 164
T: Wu yang reqing de ge
L: 1/8
M: 2/4
K: F
G2A c/ d/ [I:setbarnb 1]| 
G G/ A/G2 | 
A c/ d/ G A | 
c4 | 
A A c A/ c/ | 
G G F F | 
G G/ A/ c A | 
G4 | 
d> f c A | 
G> A F F | 
G> A c A | 
G4 | 
A c/ d/ c A | 
G G/ A/ F F | 
G G A c/ d/ | 
G4 |]

@@@ Tune index: 8832
